SVG_Azure_All/Load Balancer.svg

<?xml version="1.0" encoding="UTF-8" standalone="no"?>
<!-- Generated by Microsoft Visio, SVG Export Load Balancer.svg Page-1 -->

<svg
   xmlns:dc="http://purl.org/dc/elements/1.1/"
   xmlns:cc="http://creativecommons.org/ns#"
   xmlns:rdf="http://www.w3.org/1999/02/22-rdf-syntax-ns#"
   xmlns:svg="http://www.w3.org/2000/svg"
   xmlns="http://www.w3.org/2000/svg"
   xmlns:sodipodi="http://sodipodi.sourceforge.net/DTD/sodipodi-0.dtd"
   xmlns:inkscape="http://www.inkscape.org/namespaces/inkscape"
   width="0.78741717in"
   height="0.78744692in"
   viewBox="0 0 56.693945 56.696489"
   xml:space="preserve"
   class="st5"
   version="1.1"
   id="svg42"
   sodipodi:docname="Load Balancer.svg"
   style="font-size:12px;overflow:visible;color-interpolation-filters:sRGB;fill:none;fill-rule:evenodd;stroke-linecap:square;stroke-miterlimit:3"
   inkscape:version="0.92.5 (2060ec1f9f, 2020-04-08)"><metadata
   id="metadata46"><rdf:RDF><cc:Work
       rdf:about=""><dc:format>image/svg+xml</dc:format><dc:type
         rdf:resource="http://purl.org/dc/dcmitype/StillImage" /></cc:Work></rdf:RDF></metadata><sodipodi:namedview
   pagecolor="#ffffff"
   bordercolor="#666666"
   borderopacity="1"
   objecttolerance="10"
   gridtolerance="10"
   guidetolerance="10"
   inkscape:pageopacity="0"
   inkscape:pageshadow="2"
   inkscape:window-width="640"
   inkscape:window-height="480"
   id="namedview44"
   showgrid="false"
   inkscape:zoom="1.4193119"
   inkscape:cx="37.794705"
   inkscape:cy="37.789213"
   inkscape:window-x="0"
   inkscape:window-y="0"
   inkscape:window-maximized="0"
   inkscape:current-layer="svg42" />
	<style
   type="text/css"
   id="style2">
	<![CDATA[
		.st1 {fill:url(#grad0-6);stroke:none;stroke-linecap:butt;stroke-width:34}
		.st2 {fill:#b4ec36;stroke:none;stroke-linecap:butt;stroke-width:34}
		.st3 {fill:#ffffff;stroke:none;stroke-linecap:butt;stroke-width:34}
		.st4 {fill:#5ea0ef;stroke:none;stroke-linecap:butt;stroke-width:34}
		.st5 {fill:none;fill-rule:evenodd;font-size:12px;overflow:visible;stroke-linecap:square;stroke-miterlimit:3}
	]]>
	</style>

	<defs
   id="Patterns_And_Gradients">
		<linearGradient
   id="grad0-6"
   x1="0.00031733363"
   y1="68.014493"
   x2="56.695735"
   y2="68.014493"
   gradientTransform="scale(0.99998112,1.0000189)"
   gradientUnits="userSpaceOnUse">
			<stop
   offset="0"
   stop-color="#5e9624"
   stop-opacity="1"
   id="stop4" />
			<stop
   offset="0.02"
   stop-color="#5f9724"
   stop-opacity="1"
   id="stop6" />
			<stop
   offset="1"
   stop-color="#76bc2d"
   stop-opacity="1"
   id="stop8" />
		</linearGradient>
	</defs>
	<g
   id="g40"
   transform="translate(-34.000758,-34.000077)">
		<title
   id="title12">Page-1</title>
		<g
   id="group3436-1"
   transform="translate(34,-34.0157)">
			<title
   id="title14">Load Balancer</title>
			<g
   id="group3437-2">
				<title
   id="title16">Sheet.3437</title>
				<g
   id="shape3438-3">
					<title
   id="title18">Sheet.3438</title>
					<path
   d="M 0.57,94.99 26.99,68.58 a 1.92087,1.92043 0 0 1 2.72,0 l 26.42,26.41 a 1.92087,1.92043 0 0 1 0,2.72 l -26.45,26.45 a 1.88938,1.88894 0 0 1 -2.67,0 L 0.56,97.71 a 1.92087,1.92043 0 0 1 0.01,-2.72 z"
   class="st1"
   id="path20"
   inkscape:connector-curvature="0"
   style="fill:url(#grad0-6);stroke:none;stroke-width:34;stroke-linecap:butt" />
				</g>
				<g
   id="shape3439-7"
   transform="translate(5.8948,-21.9491)">
					<title
   id="title23">Sheet.3439</title>
					<path
   d="M 29.38,102.59 22.7,95.91 a 0.336939,0.336862 -180 0 0 -0.478643,0 L 15.53,102.59 a 0.340088,0.34001 -180 0 0 0.239321,0.57928 L 19.7,103.17 a 0.340088,0.34001 0 0 1 0.340088,0.34001 L 20.04,109.83 a 0.340088,0.34001 -180 0 0 0.340088,0.34001 L 24.53,110.17 a 0.340088,0.34001 -180 0 0 0.340088,-0.34001 L 24.87,103.51 a 0.340088,0.34001 0 0 1 0.340088,-0.34001 L 29.14,103.17 a 0.340088,0.34001 -180 0 0 0.245619,-0.57613 z m -22.59,8.2 -6.69,6.68 a 0.343237,0.343158 -180 0 0 0,0.48168 L 6.78,124.63 a 0.336939,0.336862 -180 0 0 0.57941,-0.23927 L 7.36,120.47 a 0.340088,0.34001 0 0 1 0.340088,-0.34001 L 14.03,120.13 a 0.340088,0.34001 -180 0 0 0.340088,-0.34001 L 14.37,115.64 a 0.340088,0.34001 -180 0 0 -0.340088,-0.34001 L 7.71,115.3 A 0.340088,0.34001 0 0 1 7.369912,114.95999 L 7.37,111.03 a 0.340088,0.34001 -180 0 0 -0.57941,-0.23927 z m 31.68,13.84 6.66,-6.68 a 0.343237,0.343158 -180 0 0 0,-0.48168 L 38.47,110.79 a 0.340088,0.34001 -180 0 0 -0.582558,0.23927 L 37.88,114.96 a 0.340088,0.34001 0 0 1 -0.340088,0.34001 L 31.22,115.3 a 0.340088,0.34001 -180 0 0 -0.340088,0.34001 L 30.88,119.79 a 0.340088,0.34001 -180 0 0 0.340088,0.34001 L 37.54,120.13 a 0.340088,0.34001 0 0 1 0.340088,0.34001 L 37.88,124.39 a 0.340088,0.34001 -180 0 0 0.582558,0.23927 z"
   class="st2"
   id="path25"
   inkscape:connector-curvature="0"
   style="fill:#b4ec36;stroke:none;stroke-width:34;stroke-linecap:butt" />
				</g>
				<g
   id="shape3440-9"
   transform="translate(23.0883,-6.72479)">
					<title
   id="title28">Sheet.3440</title>
					<path
   d="m 14.06,103.05 a 8.77616,8.77415 -180 1 0 -11.15,8.41 v 2.99 a 5.41937,5.41812 -180 1 0 4.94,0.04 v -3.09 a 8.74782,8.74582 -180 0 0 6.21,-8.35 z"
   class="st3"
   id="path30"
   inkscape:connector-curvature="0"
   style="fill:#ffffff;stroke:none;stroke-width:34;stroke-linecap:butt" />
				</g>
				<g
   id="shape3441-11"
   transform="translate(23.2751,-23.2827)">
					<title
   id="title33">Sheet.3441</title>
					<ellipse
   cx="5.0981698"
   cy="119.612"
   rx="5.0981698"
   ry="5.0970001"
   class="st4"
   id="ellipse35"
   style="fill:#5ea0ef;stroke:none;stroke-width:34;stroke-linecap:butt" />
				</g>
			</g>
		</g>
	</g>
</svg>

<?xml version="1.0" encoding="UTF-8" standalone="no"?>
<!DOCTYPE svg PUBLIC "-//W3C//DTD SVG 1.1//EN" "http://www.w3.org/Graphics/SVG/1.1/DTD/svg11.dtd">
<!-- Generated by Microsoft Visio, SVG Export Load Balancer.svg Page-1 -->
<svg xmlns="http://www.w3.org/2000/svg" xmlns:xlink="http://www.w3.org/1999/xlink" xmlns:ev="http://www.w3.org/2001/xml-events"
		width="1.73185in" height="1.73206in" viewBox="0 0 124.693 124.709" xml:space="preserve" color-interpolation-filters="sRGB"
		class="st5">
	<style type="text/css">
	<![CDATA[
		.st1 {fill:url(#grad0-6);stroke:none;stroke-linecap:butt;stroke-width:34}
		.st2 {fill:#b4ec36;stroke:none;stroke-linecap:butt;stroke-width:34}
		.st3 {fill:#ffffff;stroke:none;stroke-linecap:butt;stroke-width:34}
		.st4 {fill:#5ea0ef;stroke:none;stroke-linecap:butt;stroke-width:34}
		.st5 {fill:none;fill-rule:evenodd;font-size:12px;overflow:visible;stroke-linecap:square;stroke-miterlimit:3}
	]]>
	</style>

	<defs id="Patterns_And_Gradients">
		<linearGradient id="grad0-6" x1="0" y1="0" x2="1" y2="0" gradientTransform="rotate(-90 0.5 0.5)">
			<stop offset="0" stop-color="#5e9624" stop-opacity="1"/>
			<stop offset="0.02" stop-color="#5f9724" stop-opacity="1"/>
			<stop offset="1" stop-color="#76bc2d" stop-opacity="1"/>
		</linearGradient>
	</defs>
	<g>
		<title>Page-1</title>
		<g id="group3384-1" transform="translate(34,-34.0157)">
			<title>Load Balancer</title>
			<g id="group3385-2">
				<title>Sheet.3385</title>
				<g id="shape3386-3">
					<title>Sheet.3386</title>
					<path d="M0.57 94.99 L26.99 68.58 A1.92087 1.92043 0 0 1 29.71 68.58 L56.13 94.99 A1.92087 1.92043 0 0 1 56.13
								 97.71 L29.68 124.16 A1.88938 1.88894 0 0 1 27.01 124.16 L0.56 97.71 A1.92087 1.92043 0 0 1 0.57
								 94.99 Z" class="st1"/>
				</g>
				<g id="shape3387-7" transform="translate(5.8948,-21.9491)">
					<title>Sheet.3387</title>
					<path d="M29.38 102.59 L22.7 95.91 a0.336939 0.336862 -180 0 0 -0.478643 3.2685E-13 L15.53 102.59 a0.340088 0.34001
								 -180 0 0 0.239321 0.579276 L19.7 103.17 a0.340088 0.34001 0 0 1 0.340088 0.34001 L20.04 109.83 a0.340088
								 0.34001 -180 0 0 0.340088 0.34001 L24.53 110.17 a0.340088 0.34001 -180 0 0 0.340088 -0.34001 L24.87
								 103.51 a0.340088 0.34001 0 0 1 0.340088 -0.34001 L29.14 103.17 a0.340088 0.34001 -180 0 0 0.245619
								 -0.576128 ZM6.79 110.79 L0.1 117.47 a0.343237 0.343158 -180 0 0 4.66294E-15 0.481681 L6.78 124.63
								 a0.336939 0.336862 -180 0 0 0.57941 -0.239266 L7.36 120.47 a0.340088 0.34001 0 0 1 0.340088 -0.34001
								 L14.03 120.13 a0.340088 0.34001 -180 0 0 0.340088 -0.34001 L14.37 115.64 a0.340088 0.34001 -180
								 0 0 -0.340088 -0.34001 L7.71 115.3 a0.340088 0.34001 0 0 1 -0.340088 -0.34001 L7.37 111.03 a0.340088
								 0.34001 -180 0 0 -0.57941 -0.239266 ZM38.47 124.63 L45.13 117.95 a0.343237 0.343158 -180 0 0 -2.13163E-14
								 -0.481681 L38.47 110.79 a0.340088 0.34001 -180 0 0 -0.582558 0.239266 L37.88 114.96 a0.340088 0.34001
								 0 0 1 -0.340088 0.34001 L31.22 115.3 a0.340088 0.34001 -180 0 0 -0.340088 0.34001 L30.88 119.79
								 a0.340088 0.34001 -180 0 0 0.340088 0.34001 L37.54 120.13 a0.340088 0.34001 0 0 1 0.340088 0.34001
								 L37.88 124.39 a0.340088 0.34001 -180 0 0 0.582558 0.239266 Z" class="st2"/>
				</g>
				<g id="shape3388-9" transform="translate(23.0883,-6.72479)">
					<title>Sheet.3388</title>
					<path d="M14.06 103.05 A8.77616 8.77415 -180 1 0 2.91 111.46 L2.91 114.45 A5.41937 5.41812 -180 1 0 7.85 114.49
								 L7.85 111.4 A8.74782 8.74582 -180 0 0 14.06 103.05 Z" class="st3"/>
				</g>
				<g id="shape3389-11" transform="translate(23.2751,-23.2827)">
					<title>Sheet.3389</title>
					<ellipse cx="5.09817" cy="119.612" rx="5.09817" ry="5.097" class="st4"/>
				</g>
			</g>
		</g>
	</g>
</svg>
